X:8
T:8. So Light is Love
C:John Wilbye
%#Noindex
%%score [1 2 3]
%%transpose 7
L:1/8
M:4/4
I:linebreak $
K:F
V:1 treble nm="Treble I"
%%MIDI program 73
V:2 treble nm="Treble II"
%%MIDI program 73
V:3 bass nm="Bass" octave=-1
%%MIDI program 73
L:1/4
V:1
 c4 A3 G | F4 z2 f2 | d3 c B2 AB |$ c2 A2 G2 G2 | A4 F4 | z2 f2 d3 c | B2 F2 F2 F2 |$ G2 F2 F2 E2 | %8
w: So light is|love, so|light is love, in_|match- less beau- ty|shin- ing,|so light is|love, in match- less|beau- ty shin - |
 F4 F2 FG | A3 B c2 f2 |$ f2 _e2 d4 | c6 c2 | c2 =B2 c4 |$ z2 c3 G A2 | E3 F GFED | E2 c3 G A2 |$ %16
w: ing, When she re-|vi- sits Cy- pris'|hal- low'd bow-|ers, Two|fee- ble doves,|har- ness'd in|sil- ken twin- ---|ing, har- ness'd in|
 E3 F GFED | E2 F4 E2 | F4 z2 f2- | fc d2 A3 B |$ cBAG A3 B | c2 B4 A2 | Bcd_e f3 e |$ %23
w: sil- ken twin- ---||ing, har-|- ness'd in sil- ken|twin- -----|- ing, Can|draw_  her_ cha- riot|
 d2 B2 B2 A2 | B4 F4- | F4 z2 c2 |$ cdef g3 f | e2 c2 e2 d2 | c4 G2 G2 |$ G2 G2 ABcA | %30
w: 'midst the Pa- phian|flo- wers,|_ can|draw_ her_ cha- riot|'midst the Pa- phian|flo- wers, can|draw her cha - riot_|
 =B2 c2 c2 B2 | c8 | z2 A3 A G2 |$ F2 f3 f _e2 | d2 c2 B2 B2 | A2 F3 G A2 |$ B4 z2 fe | %37
w: 'midst the Pa- phian|flow'rs.|Light- ness to|love! light- ness to|love! how ill it|fit- ---|teth, light- -|
 defd e2 c2 | =B2 G2 g4- | g2 c2 c2 =B2 |$ c2 c3 d e2 | f4 z2 cB | ABcA B2 A2 |$ G6 A2 | B6 A2 | %45
w: ---- ness to|love! how ill|_ it fit- -|teth, light- ness to|love! light- -|---- ness to|love! how|ill it|
 G2 F4 E2 | F4 C4 | D8 |$ E4 F4- | F4 E4 | F6 GA | B8- | B4 A4 | G8 | F4 z2 c2- |$ cc B2 A2 G2 | %56
w: fit- --|teth, So|hea-||- vy|on my_|heart,|_ he|sit-|teth. Light-|- ness to love! how|
 GF F3 E/D/ E2 | F4 z2 f_e |$ d_efe d2 c2 | B4 G4 | G3 A =B2 c2 | d2 e2 d4 |$ e4 z2 cB | %63
w: ill it fit- ---|teth, light- -|---- ness to|love! light-|ness to love! how|ill it fit-|teth, light- -|
 ABcB A2 G2 | F2 f_e de f2 |$ e3 f g2 c2 | d3 _e f2 c2 | c2 A2 G2 G2 | z4 F4- | F4 B4- |$ B4 A4 |$ %71
w: ---- ness to|love! light- ----|ness to love! light-|ness to love! how|ill it fit- teth,|So|_ hea-|- vy|
 G4 G4 | F6 _E2 | D2 C2 D4 | E4 F4- | F4 E4 | F8- |$ F8 |] %78
w: on my|heart, O!|on my heart|he sit-||teth.|_|
V:2
 z8 | f4 d3 c | B2 F2 F2 F2 |$ G2 F2 F2 E2 | F2 c2 A3 G | F4 z2 f2 | d3 c B2 AB |$ c2 A2 G2 G2 | %8
w: |So light is|love, in match- less|beau- ty shin- -|ing, so light is|love so|light is love, in_ |match- less beau- ty|
 A4 A4 | F2 FG A3 B |$ c2 c2 B3 A | G2 G4 A2 | F2 F2 E2 c2- |$ cG A2 E2 F2 | GFED E2 c2- | %15
w: shin- ing,|When she re- vi- sits|Cy- pris' hal- low'd|bow- ers, Two|fee- ble doves, har-|- ness'd in sil- ken|twin- --- ing, har-|
 cG A2 E3 F |$ GFED E3 F | G2 A2 G4 | A4 z4 | z2 f3 c d2 |$ A3 B cBAG | A2 d2 c2 c2 | %22
w: - ness'd in sil- ken|twin- -----||ing,|har- ness'd in|sil- ken twin- ---|ing, in sil- ken|
 d2 B2 z2 c2 |$ Bcd_e f3 e | d2 B2 d2 c2 | B4 A4 |$ G4 z2 d2 | cdef g3 f | e2 c2 e2 d2 |$ %29
w: twin- ing, Can|draw _ her_ cha- riot|'midst the Pa- phian|flo- -|wers, can|draw_ her_ cha- riot,|draw her cha- riot|
 c2 c2 c2 f2- | f2 e2 d4 | e8 | z2 z4 c2- |$ cc B2 A2 G2 | GF F3 E/D/ E2 | F4 z2 f_e |$ %36
w: 'midst the Pa- -|- phian flo-|wers.|Light-|- ness to love! how|ill it fit- ---|teth, light- -|
 d_efe d2 c2 | B4 G4 | G3 A =B2 c2 | d2 e2 d4 |$ c4 z2 cB | ABcB A2 G2 | F2 f_e de f2 |$ %43
w: ---- ness to|love! light-|ness to love! how|ill it fit-|teth, light- -|---- ness to|love! light- ----|
 e3 f g2 c2 | d3 _e f2 c2 | c2 A2 G2 G2 | z4 F4- | F4 B4- |$ B4 A4 | G4 G4 | F6 _E2 | D2 C2 D4 | %52
w: ness to love! light-|ness to love! how|ill it fit- teth,|So|_ hea-|- vy|on my|heart, O!|on my heart|
 E4 F4- | F4 E4 | F2 A3 A G2 |$ F2 f3 f _e2 | d2 c2 B2 B2 | A2 F3 G A2 |$ B4 z2 fe | defd e2 c2 | %60
w: he sit-||eth. Light- ness to|love! light- ness to|love! how ill it|fit- ---|teth, light- -|---- ness to|
 =B2 G2 g4- | g2 c2 c2 =B2 |$ c2 c3 d e2 | f4 z2 cB | ABcA B2 A2 |$ G6 A2 | B6 A2 | G2 F4 E2 | %68
w: love! how ill|_ it fit- -|teth, light- ness to|love! light- -|---- ness to|love! how|ill it|fit- --|
 F4 C4 | D8 |$ E4 F4- |$ F4 E4 | F6 GA | B8- | B4 A4 | G8 | A8- |$ A8 |] %78
w: teth, So|hea-||- vy|on my _|heart,|_ he|sit|teth.|_|
V:3
 z2 F2 | D3/2 C/ B, A, | B,3/2 C/ D/_E/ F |$ E F C2 | F,3 F | D3/2 C/ B, A, | B,3/2 C/ D/_E/ F |$ %7
w: So|light is love, in|match- --- less|beauty shining, so|light is love, in__|match- --- less|
 E F C2 | F,4- | F,2 F, F,/G,/ |$ A,2 B,2 | C3/2 D/ E F | D2 C2 |$ C2 C F, | C3 C | C C C3/2 F/ |$ %16
w: beau- ty shin-|ing,|_ When she re-|vi- sits,|Cy- pris' hal- low'd|bow- ers,|Two fee- ble|doves, har-|ness'd in sil- ken|
 C C2 C | C F, C2 | F, F3/2 C/ D | A, B, F, F, |$ F2 F F | F B, F2 | B,3 A, |$ B,2 F,2 | B,3 A, | %25
w: twin- ing, in|sil- ken twin-|ing, har- ness'd in|sil- ken twin- ing,|har- ness'd in|sil- ken twin-|ing, Can|draw her|cha- riot|
 B,2 F,2 |$ C3 =B, | C2 G,2 | C3 =B, |$ C2 F,2 | G,4 | C4 | z F3/2 F/ _E |$ D2 C2 | B, A, G,2 | %35
w: 'midst the|Pa- phian|flo- wers,|'midst the|Pa- phian|flo-|wers.|Light- ness to|love! how|ill it fit-|
 F, F/_E/ D/E/ F |$ B,3 A, | B,2 C2 | G,3 A, | =B, C G,2 |$ z C/B,/ A,/B,/ C | F,3 E, | %42
w: teth, light- ----|ness to|love! how|ill it|fit- - teth,|light- ----|ness to|
 F, F, B, F, |$ C3/2 D/ E F | B,3/2 C/ D/_E/ F | E F C2 | A,4 | B,4 |$ C4- | C4 | D3 C | %51
w: love! how ill it|fit- - teth, how|ill ___ it|fit- - teth,|So|hea-|vy|_|on my|
 B, A, B,2 | C4- | C4 | F, F3/2 F/ _E |$ D2 C2 | B, A, G,2 | F, F/_E/ D/E/ F |$ B,3 A, | B,2 C2 | %60
w: heart,_ he|sit-||eth. Light- ness to|love! how|ill it fit-|teth, light- ----|ness to|love! how|
 G,3 A, | =B, C G,2 |$ z C/B,/ A,/B,/ C | F,3 E, | F, F, B, F, |$ C2 C F | B,3/2 C/ D/_E/ F | %67
w: ill it|fit- - teth,|light- ----|ness to|love! how ill it|fit- teth, how|ill ___ it|
 E F C2 | A,4 | B,4 |$ C4- |$ C4 | D3 C | B,2 B,2 | C4- | C4 | F,4- |$ F,4 |] %78
w: fit- - teth,|So|hea-|vy|_|on my|heart, he|sit-||teth.|_|

